src/icons/ecr.svg

<?xml version="1.0" encoding="UTF-8"?>
<svg xmlns="http://www.w3.org/2000/svg" xmlns:xlink="http://www.w3.org/1999/xlink" width="32" height="32" viewBox="0 0 32 32" version="1.1">
<g id="surface1">
<path style=" stroke:none;fill-rule:evenodd;fill:rgb(61.56863%,31.37255%,14.509805%);fill-opacity:1;" d="M 0 16.632812 C 0 8.117188 7.136719 1.261719 16 1.261719 C 24.863281 1.261719 32 8.117188 32 16.632812 C 32 25.144531 24.863281 32 16 32 C 7.136719 32 0 25.144531 0 16.632812 Z M 0 16.632812 "/>
<path style=" stroke:none;fill-rule:evenodd;fill:rgb(61.56863%,31.37255%,14.509805%);fill-opacity:1;" d="M 0 15.367188 L 32 15.367188 L 32 16.632812 L 0 16.632812 Z M 0 15.367188 "/>
<path style=" stroke:none;fill-rule:evenodd;fill:rgb(96.078432%,52.156866%,21.176471%);fill-opacity:1;" d="M 0 15.367188 C 0 6.855469 7.136719 0 16 0 C 24.863281 0 32 6.855469 32 15.367188 C 32 23.882812 24.863281 30.738281 16 30.738281 C 7.136719 30.738281 0 23.882812 0 15.367188 Z M 0 15.367188 "/>
<path style=" stroke:none;fill-rule:evenodd;fill:rgb(100%,100%,100%);fill-opacity:1;" d="M 17.035156 13.703125 L 14.96875 13.703125 L 13.859375 4.546875 L 18.144531 4.546875 Z M 17.035156 13.703125 "/>
<path style=" stroke:none;fill-rule:evenodd;fill:rgb(100%,100%,100%);fill-opacity:1;" d="M 25.253906 20.445312 L 26.078125 19.789062 L 23.085938 15.496094 L 16.535156 13.296875 L 16 16.773438 L 21.90625 17.304688 Z M 25.253906 20.445312 "/>
<path style=" stroke:none;fill-rule:evenodd;fill:rgb(100%,100%,100%);fill-opacity:1;" d="M 6.746094 20.445312 L 5.925781 19.789062 L 8.914062 15.496094 L 15.464844 13.296875 L 16 16.773438 L 10.09375 17.304688 Z M 13.027344 4.546875 C 13.027344 2.964844 14.355469 1.691406 16 1.691406 C 17.644531 1.691406 18.96875 2.964844 18.96875 4.546875 C 18.96875 6.125 17.644531 7.398438 16 7.398438 C 14.355469 7.398438 13.027344 6.125 13.027344 4.546875 Z M 13.027344 4.546875 "/>
<path style=" stroke:none;fill-rule:evenodd;fill:rgb(96.078432%,52.156866%,21.176471%);fill-opacity:1;" d="M 16 7.652344 C 14.214844 7.652344 12.765625 6.261719 12.765625 4.546875 C 12.765625 2.828125 14.214844 1.4375 16 1.4375 C 17.785156 1.4375 19.234375 2.828125 19.234375 4.546875 C 19.234375 6.261719 17.785156 7.648438 16 7.652344 Z M 16 1.945312 C 17.496094 1.945312 18.707031 3.109375 18.707031 4.546875 C 18.707031 5.980469 17.496094 7.144531 16 7.144531 C 14.503906 7.144531 13.292969 5.980469 13.292969 4.546875 C 13.292969 3.109375 14.503906 1.945312 16 1.945312 Z M 15.027344 4.546875 C 15.027344 4.027344 15.460938 3.609375 16 3.609375 C 16.539062 3.609375 16.972656 4.027344 16.972656 4.546875 C 16.972656 5.0625 16.539062 5.480469 16 5.480469 C 15.460938 5.480469 15.027344 5.0625 15.027344 4.546875 Z M 15.027344 4.546875 "/>
<path style=" stroke:none;fill-rule:evenodd;fill:rgb(100%,100%,100%);fill-opacity:1;" d="M 13.859375 15 C 13.859375 13.859375 14.8125 12.945312 16 12.945312 C 17.1875 12.945312 18.140625 13.859375 18.140625 15 C 18.140625 16.140625 17.183594 17.054688 16 17.054688 C 14.816406 17.054688 13.859375 16.140625 13.859375 15 Z M 13.859375 15 "/>
<path style=" stroke:none;fill-rule:evenodd;fill:rgb(96.078432%,52.156866%,21.176471%);fill-opacity:1;" d="M 16 17.308594 C 14.675781 17.304688 13.601562 16.273438 13.601562 15 C 13.601562 13.726562 14.675781 12.695312 16 12.691406 C 17.324219 12.6875 18.402344 13.71875 18.40625 14.988281 C 18.410156 15.605469 18.15625 16.195312 17.703125 16.628906 C 17.253906 17.0625 16.640625 17.308594 16 17.308594 Z M 16 13.191406 C 17.035156 13.1875 17.878906 13.992188 17.882812 14.988281 C 17.886719 15.984375 17.046875 16.796875 16.011719 16.796875 C 14.972656 16.800781 14.132812 15.996094 14.128906 15 C 14.125 14.003906 14.964844 13.195312 16 13.191406 L 16 13.195312 Z M 15.34375 15 C 15.34375 14.648438 15.636719 14.367188 16 14.367188 C 16.363281 14.367188 16.65625 14.648438 16.65625 15 C 16.65625 15.351562 16.363281 15.632812 16 15.632812 C 15.636719 15.632812 15.34375 15.351562 15.34375 15 Z M 15.34375 15 "/>
<path style=" stroke:none;fill-rule:evenodd;fill:rgb(100%,100%,100%);fill-opacity:1;" d="M 9.097656 19.738281 L 22.902344 19.738281 L 22.902344 27.066406 L 9.097656 27.066406 Z M 9.097656 19.738281 "/>
<path style=" stroke:none;fill-rule:evenodd;fill:rgb(98.431373%,74.901962%,57.647061%);fill-opacity:1;" d="M 9.789062 20.328125 L 10.84375 20.328125 L 10.84375 26.476562 L 9.789062 26.476562 Z M 11.683594 20.328125 L 12.734375 20.328125 L 12.734375 26.476562 L 11.683594 26.476562 Z M 13.582031 20.328125 L 14.632812 20.328125 L 14.632812 26.476562 L 13.582031 26.476562 Z M 15.472656 20.328125 L 16.527344 20.328125 L 16.527344 26.476562 L 15.472656 26.476562 Z M 17.367188 20.328125 L 18.417969 20.328125 L 18.417969 26.476562 L 17.367188 26.476562 Z M 19.265625 20.328125 L 20.316406 20.328125 L 20.316406 26.476562 L 19.265625 26.476562 Z M 21.15625 20.328125 L 22.210938 20.328125 L 22.210938 26.476562 L 21.15625 26.476562 Z M 21.15625 20.328125 "/>
</g>
</svg>

<svg xmlns="http://www.w3.org/2000/svg" width="32" height="32" stroke="#000" stroke-linecap="round" stroke-linejoin="round" fill="#fff" fill-rule="evenodd"><g fill="#9d5025" stroke="none"><path d="M0 16.6313C0 8.117 7.136 1.2626 16 1.2626S32 8.117 32 16.6313 24.864 32 16 32 0 25.1455 0 16.6313z"/><path d="M0 15.3687h32v1.2626H0z"/></g><path d="M0 15.3687C0 6.8544 7.136 0 16 0s16 6.8544 16 15.3687-7.136 15.3687-16 15.3687S0 23.8829 0 15.3687z" fill="#f58536" stroke="none"/><path d="M17.0358 13.702h-2.0664L13.86 4.5454h4.2852l-1.1094 9.1566z" stroke="none"/><path d="M25.254 20.4444l.8255-.6565-2.9918-4.2929-6.5514-2.197L16 16.7728l5.9047.5302 3.3493 3.1414z" stroke="none"/><path d="M6.746 20.4444l-.8203-.6565 2.9866-4.2929 6.5514-2.197L16 16.7728l-5.9047.5302-3.3493 3.1414zm6.2832-15.899c0-1.5808 1.325-2.8535 2.9708-2.8535s2.9707 1.2727 2.9707 2.8535S17.6458 7.3989 16 7.3989s-2.9708-1.2726-2.9708-2.8535z" stroke="none"/><path d="M16 7.6515c-1.7859 0-3.2336-1.3906-3.2336-3.1061S14.2141 1.4394 16 1.4394s3.2337 1.3906 3.2337 3.106S17.7848 7.6487 16 7.6515zm0-5.7071c1.4956 0 2.7079 1.1645 2.7079 2.601S17.4956 7.1464 16 7.1464s-2.7078-1.1644-2.7078-2.601S14.5046 1.9444 16 1.9444h0zm-.9727 2.6011c0-.5177.4338-.9344.9727-.9344s.9727.4167.9727.9344-.4338.9343-.9727.9343-.9727-.4167-.9727-.9343z" stroke="none" fill="#f58536"/><path d="M13.86 15c0-1.1388.9544-2.0556 2.14-2.0556s2.1399.9168 2.1399 2.0556-.9544 2.0555-2.1399 2.0555-2.14-.9168-2.14-2.0555z" stroke="none"/><path d="M16 17.3081c-1.325-.0028-2.3976-1.0354-2.3976-2.3081S14.675 12.6947 16 12.6919s2.4024 1.0252 2.4081 2.298c.0014.6143-.2517 1.204-.7034 1.6389s-1.0651.6793-1.7047.6793zm0-4.1162c1.0367-.0028 1.8794.8022 1.8823 1.798s-.8351 1.8053-1.8718 1.808-1.8794-.8022-1.8823-1.7979.8351-1.8053 1.8718-1.8081v.005zM15.3428 15c0-.3497.2931-.6313.6572-.6313s.6573.2816.6573.6313-.2931.6313-.6573.6313-.6572-.2815-.6572-.6313z" stroke="none" fill="#f58536"/><path d="M9.0963 19.7374h13.8074v7.3283H9.0963z" stroke="none"/><path d="M9.7903 20.3283h1.0516v6.1464H9.7903zm1.8929 0h1.0516v6.1464h-1.0516zm1.8982 0h1.0516v6.1464h-1.0516zm1.8928 0h1.0516v6.1464h-1.0516zm1.8928 0h1.0516v6.1464H17.367zm1.8982 0h1.0516v6.1464h-1.0516zm1.8929 0h1.0516v6.1464h-1.0516z" stroke="none" fill="#fbbf93"/></svg>
